src/govuk-pub/assets/images/components/action-link/action-link-arrow--dark.svg

<svg fill="none" height="23" viewBox="0 0 23 23" width="23" xmlns="http://www.w3.org/2000/svg"><circle cx="11.5" cy="11.5" fill="#272828" r="11.5"/><g clip-rule="evenodd" fill="#fff500" fill-rule="evenodd"><path d="m14.9429 11.7949-4.5027-4.50268 1.2925-1.29255 5.7953 5.79523-5.7953 5.7953-1.2925-1.2926z"/><path d="m3.95631 10.881h11.48509v1.828h-11.48509z"/></g></svg>

<svg width="23" height="23" viewBox="0 0 23 23" fill="none" xmlns="http://www.w3.org/2000/svg">
  <circle cx="11.5" cy="11.5" r="11.5" fill="#272828"/>
  <path fill-rule="evenodd" clip-rule="evenodd" d="M14.9429 11.7949L10.4402 7.29222L11.7327 5.99967L17.528 11.7949L11.7327 17.5902L10.4402 16.2976L14.9429 11.7949Z" fill="#fff500"/>
  <path fill-rule="evenodd" clip-rule="evenodd" d="M3.95631 10.881L15.4414 10.881L15.4414 12.709L3.95631 12.709L3.95631 10.881Z" fill="#fff500"/>
</svg>
